X: 22916
T: Larry Mallette's Glorious Evidence Of Spring
R: jig
M: 6/8
K: Gmajor
BdS|:~e3 gfd|~e3 dBG|~A3 GFD|~E3 GBd|
~e3 gfd|~e3 dBG|~A3 FGA|1 FED E2d:|2 FED E2F||
|:GBd FAd|EBe|gfe|fdB BAB|B/c/dA BAF|
[1~G3 ~F3|EBe gfe|fdf gag|fed e2F:|
[2GBd FAd|EBe gfe|~f3 ~g3|afd Bdf||

